resources/svg/minor-promote.svg

<svg xmlns="http://www.w3.org/2000/svg" viewBox="0 0 20 20" fill="currentColor"><path d="M4.5 3a1.5 1.5 0 0 0-1.5 1.5v11a1.5 1.5 0 0 0 1.5 1.5h11a1.5 1.5 0 0 0 1.5-1.5v-3.5h-2v3h-10v-10h3v-2h-3.5zm12.5 1a1 1 0 0 0-1-1h-5a1 1 0 1 0 0 2h2.586l-5.293 5.293a.999.999 0 1 0 1.414 1.414l5.293-5.293v2.586a1 1 0 1 0 2 0v-5z"/></svg>

<svg xmlns="http://www.w3.org/2000/svg" viewBox="0 0 20 20" fill="currentColor"><path d="M4.5 3A1.5 1.5 0 0 0 3 4.5v11A1.5 1.5 0 0 0 4.5 17h11a1.5 1.5 0 0 0 1.5-1.5V12h-2v3H5V5h3V3H4.5zM17 4a1 1 0 0 0-1-1h-5a1 1 0 1 0 0 2h2.586l-5.293 5.293a.999.999 0 1 0 1.414 1.414L15 6.414V9a1 1 0 1 0 2 0V4z"/></svg>
